svg/calendar_multiple_check.svg

<svg xmlns="http://www.w3.org/2000/svg" viewBox="0 0 24 24"><path d="M21 17V8H7v9zm0-14a2 2 0 0 1 2 2v12a2 2 0 0 1-2 2H7a2 2 0 0 1-2-2V5a2 2 0 0 1 2-2h1V1h2v2h8V1h2v2zm-3.47 8.06-4.44 4.44-2.68-2.68 1.06-1.06 1.62 1.62L16.47 10zM3 21h14v2H3a2 2 0 0 1-2-2V9h2z"/></svg>

<?xml version="1.0" encoding="UTF-8"?><!DOCTYPE svg PUBLIC "-//W3C//DTD SVG 1.1//EN" "http://www.w3.org/Graphics/SVG/1.1/DTD/svg11.dtd"><svg xmlns="http://www.w3.org/2000/svg" xmlns:xlink="http://www.w3.org/1999/xlink" version="1.1" id="mdi-calendar-multiple-check" width="24" height="24" viewBox="0 0 24 24"><path d="M21,17V8H7V17H21M21,3A2,2 0 0,1 23,5V17A2,2 0 0,1 21,19H7C5.89,19 5,18.1 5,17V5A2,2 0 0,1 7,3H8V1H10V3H18V1H20V3H21M17.53,11.06L13.09,15.5L10.41,12.82L11.47,11.76L13.09,13.38L16.47,10L17.53,11.06M3,21H17V23H3C1.89,23 1,22.1 1,21V9H3V21Z" /></svg>
